icons/editor/unlink.svg

<svg width="32" height="32" viewBox="0 0 32 32" fill="none" xmlns="http://www.w3.org/2000/svg">
<path fill-rule="evenodd" clip-rule="evenodd" d="M13 2V6H11V2H13ZM6 11H2V13H6V11ZM30 19H26V21H30V19ZM21 30V26H19V30H21ZM27.2929 28.7071L24.0429 25.4571L25.4571 24.0429L28.7071 27.2929L27.2929 28.7071ZM3.29289 4.70711L6.54289 7.95711L7.95711 6.54289L4.70711 3.29289L3.29289 4.70711ZM24.8284 7.17157C23.2663 5.60948 20.7337 5.60948 19.1716 7.17157L14.7071 11.636L13.2929 10.2218L17.7574 5.75736C20.1005 3.41421 23.8995 3.41421 26.2426 5.75736C28.5858 8.1005 28.5858 11.8995 26.2426 14.2426L21.7071 18.7782L20.2929 17.364L24.8284 12.8284C26.3905 11.2663 26.3905 8.73367 24.8284 7.17157ZM7.17157 19.1716L11.7071 14.636L10.2929 13.2218L5.75736 17.7574C3.41421 20.1005 3.41421 23.8995 5.75736 26.2426C8.1005 28.5858 11.8995 28.5858 14.2426 26.2426L18.7071 21.7782L17.2929 20.364L12.8284 24.8284C11.2663 26.3905 8.73367 26.3905 7.17157 24.8284C5.60948 23.2663 5.60948 20.7337 7.17157 19.1716Z" fill="black"/>
</svg>

<svg width="32" height="32" viewBox="0 0 32 32" xmlns="http://www.w3.org/2000/svg">
    <path fill-rule="evenodd" d="M13 2v4h-2V2h2zm-7 9H2v2h4v-2zm24 8h-4v2h4v-2zm-9 11v-4h-2v4h2zm6.293-1.293l-3.25-3.25 1.414-1.414 3.25 3.25-1.414 1.414zm-24-24l3.25 3.25 1.414-1.414-3.25-3.25-1.414 1.414zm21.535 2.465a4 4 0 00-5.656 0l-4.465 4.464-1.414-1.414 4.464-4.465a6 6 0 118.486 8.486l-4.536 4.535-1.414-1.414 4.535-4.536a4 4 0 000-5.656zm-17.656 12l4.535-4.536-1.414-1.414-4.536 4.535a6 6 0 108.486 8.486l4.464-4.465-1.414-1.414-4.465 4.464a4 4 0 11-5.656-5.656z"/>
</svg>
